X:36
T:The Carle He Came O'er the Craft
R:pipe reel or strathspey
% for strathspey set more dotted rhythms could be added
C:traditional
O:18th century Scottish
B:Bremner's Collections, 1757
D:David Greenberg/Puirt a Baroque - Bach Meets Cape Breton (with variations)
N:1133 7b533  (1133 7533)
Z:Paul Stewart Cranford (P.S.C.), <http://www.cranfordpub.com>
L:1/8
M:C|
K:Amix
(A>BA)e cAce|g2 d2 (B/=c/d/c/ B)G|(A>BA)e cAce|(a^g/f/ e)d (c/d/e) (cA):|
|:a(AA)B c>def|g(GG)A (B/=c/d/c/ B)G|A2 a>^g a2 (ef/g/)|(a/^g/f/e/ f)d (c/d/e) (cA):|
